X:367
T: FRUH FRUH DES MORGENS FRUH
N: F0653
O: Europa, Mitteleuropa, Deutschland
R: Staende -, Jaeger - Lied
M: 3/4
L: 1/16
K: F
 | c2B2A2c2f4 | c6B2A4 |
F2d2d4f2d2 | c6d2c4 |
c2B2B4c4 | A3GA2B2c4 |
c2B2A4B4 | A4z8

@@@ Tune index: 5798
